X: 43098
T: Winding Road, The
R: jig
M: 6/8
K: Gmajor
|:DBB Dcc|DBB c2e|dBG FGA|BGB cAF|
DBB Dcc|DBB c2e|dBG FGA|BGF G2:|
|:Ggg efg|fed cAF|GBd gfg|afd cAF|
DBB Dcc|DBB c2e|dBG FGA|BGF G2:|

